**kern	**silbe
*ICvox	*
*d:	*
*M4/4	*
*clefF4	*
r;	.
=1	=1
1r	.
=2	=2
1r	.
=3	=3
1r	.
=4	=4
1r	.
=5	=5
4.A	Time
[8A	time
4A]	_
[4A	time
=6	=6
8A]	_
8r	.
8r	.
4A	See
8A	what's
8r	.
8F	be-
=7	=7
8G	-come
4G	of
[8A	me
4A]	_
4r	.
=8	=8
2r	.
4r	.
8G	While
[8A	I
=9	=9
8A]	_
4B-	looked
[8B-	a-
8B-]	_
4.B-	-round
=10	=10
4r	.
8B-	for
[8B-	my
8B-]	_
4A	po-
8G	-ssi-
=11	=11
8c	-bi-
4c	-li-
4.c	-ties
4r	.
=12	=12
2r	.
6A	I
6B-	was
6A	so
=13	=13
8A	hard
4G	_
8F	to
2E	please
=14	=14
2r	.
8r	.
8E	But
16E	look
16E	a-
[8F	-round
=15	=15
4F]	_
4r	.
8r	.
8A	Leaves
8F	are
[8G	brown
=16	=16
4G]	_
4r	.
8r	.
8G	and
8G	the
[8B-	sky
=17	=17
8B-]	_
8r	.
4r	.
8r	.
8B-	is
8B-	a
[8c#	ha-
=18	=18
8c#]	_
4A	-zy
4.c#	shade
8c#	of
[8f	win-
=19	=19
8f]	_
8d	-ter
4r	.
2r	.
=20	=20
6r	.
6A	Hear
6A	the
6A	Salv-
6G	-a-
6F	-tion
=21	=21
4G	Ar-
8F	-my
4.E	band
4r	.
=22	=22
1r	.
=23	=23
4B-	Down
8.B-	by
16F	the
16B-	ri-
16B-	-ver-
4B-	-side
8B-	is
=24	=24
8B-	bound
8B-	to
8B-	be
8F	a
16B-	be-
16B-	-tter
4B-	ride
8B-	than
=25	=25
6c	what
6c	you've
6c	got
4c	planned
4r	.
=26	=26
2r	.
6A	Ca-
6B-	-rry
6A	your
=27	=27
6A	cup
6G	in
6F	your
4E	hand
4r	.
=28	=28
2r	.
8r	.
8F	And
16E	look
16E	a-
[8F	-round
=29	=29
8F]	_
8D	ya
4r	.
8r	.
8A	Leaves
8F	are
[8G	brown
=30	=30
8G]	_
8E	now
4r	.
8r	.
8G	and
8G	the
[8B-	sky
=31	=31
4B-]	_
4r	.
8r	.
8B-	is
8B-	a
[8c#	ha-
=32	=32
8c#]	_
4A	-zy
4.c#	shade
8c#	of
[8f	win-
=33	=33
8f]	_
8d	-ter
4r	.
2r	.
=34	=34
4r	.
8f	Hang
[8f	on
8f]	_
8e	to
8d	your
[8e	hopes
=35	=35
8e]	_
4c	my
[8G	friend
4G]	_
4r	.
=36	=36
1r	.
=37	=37
8B-	That's
16F	an
8B-	ea-
16F	-sy
[8B-	thing
16B-]	_
8F	to
8.B-	say
16F	but
[16B-	if
=38	=38
16B-]	_
8.B-	you're
8B-	hopes
8F	should
8B-	pass
8B-	a-
4B-	-way
=39	=39
6c	Sim-
6c	-ply
6c	pre-
4c	-tend
4r	.
=40	=40
2r	.
6A	that
6B-	you
6A	can
=41	=41
6A	build
6G	them
6F	a-
4E	-gain
4r	.
=42	=42
2r	.
8r	.
8F	Look
8E	a-
[8F	-round
=43	=43
4F]	_
4r	.
4r	.
8A	Grass
8F	is
=44	=44
2G	high
4r	.
8G	Fields
8G	are
=45	=45
4B-	ripe
4r	.
8r	.
8B-	It's
8B-	the
[8c#	spring
=46	=46
8c#]	_
4A	time
4c#	of
8f	my
8e	_
[8d	life
=47	=47
8d]	_
8r	.
4r	.
2r	.
=48	=48
1r	.
=49	=49
[1f	Ooh
=50	=50
6f]	_
6d	sea-
6d	-sons
4d	change
8c	with
[8B-	the
=51	=51
4B-]	_
8A	scen-
8B-	-er-
2c	-y
=52	=52
6r	.
6c	Weav-
6c	-ing
4d	time
8A	in
[8G	a
=53	=53
6G]	_
6F	ta-
6G	-pes-
4A	-try
4r	.
=54	=54
6r	.
6B-	Won't
6B-	you
6B-	stop
6A	and
6G	re-
=55	=55
4.F	-mem-
[8G	-ber
4G]	_
4A	me
=56	=56
1r	.
=57	=57
4r	.
8r	.
8G	At
8B-	a-
8A	-ny
8F	con-
[8G	-ven-
=58	=58
8G]	_
4E	-ient
[8C	time
4C]	_
4r	.
=59	=59
16B-	Fu-
16F	-nny
4B-	how
8B-	my
16B-	me-
16B-	-mo-
8F	-ry
8B-	skips
8B-	while
=60	=60
16B-	look-
8F	-ing
8B-	ov-
16F	-er
4B-	man-
8F	-u-
8B-	-scripts
8B-	of
=61	=61
6c	un-
6c	-pub-
6c	-lished
4c	rhyme
4r	.
=62	=62
2r	.
6A	Drink-
6B-	-ing
6A	my
=63	=63
6A	vod-
6G	-ka
6F	and
4E	lime
4r	.
=64	=64
2r	.
8r	.
8E	I
16E	look
16E	a-
[8F	-round
=65	=65
4F]	_
4r	.
8r	.
8A	Leaves
8F	are
[8G	brown
=66	=66
8G]	_
16E	now
16D	_
8C	_
8r	.
8r	.
8G	and
8G	the
[8B-	sky
=67	=67
4B-]	_
4r	.
8r	.
8B-	is
8B-	a
[8c#	ha-
=68	=68
8c#]	_
4A	-zy
4.c#	shade
8c#	of
[8f	win-
=69	=69
8f]	_
8d	-ter
4r	.
8r	.
8f	look
8e	a-
8d	-round
=70	=70
4c	_
4r	.
8r	.
8d	leaves
4c	are
=71	=71
4B-	brown
4r	.
8r	.
8B-	there's
8B-	a
[8A	patch
=72	=72
8A]	_
4G	of
[8F	snow
8F]	_
8F	on
8G	the
[8A	ground
=73	=73
4A]	_
4r	.
8r	.
8f	Look
8e	a-
8d	-round
=74	=74
4c	_
4r	.
6r	.
6d	leaves
6c	are
=75	=75
4B-	brown
4r	.
8r	.
8B-	there's
8B-	a
[8A	patch
=76	=76
8A]	_
4G	of
[8F	snow
8F]	_
8F	on
8E	the
[8D	ground
=77	=77
4D]	_
4r	.
8r	.
8f	Look
8e	a-
8d	-round
=78	=78
4c	_
4r	.
6r	.
6d	leaves
6c	are
=79	=79
4B-	brown
4r	.
8r	.
8B-	There's
8B-	a
[8A	patch
=80	=80
8A]	_
4G	of
[8F	snow
8F]	_
8F	on
8G	the
[8A	ground
=81	=81
4A]	_
4r	.
2r	.
r;	.
*-	*-
!!!ENC: Nathaniel Condit-Schultz